X:234 
T:Carol 
C:John Lace, St.Judes,at 55
C:Traditional
O:Isle of Man
Z:Clague collection
N:Moore 71
B:Kiaull Vannin #234 
L:1/8
M:6/8  
K:D 
D|D2F A2A|B3 A2A|AGF AGF|E3-E2 D|D2F A2A|B3 A2A|AGF GFE|D3-D2 F|
E2E E2E|A3 E2E|c3BAB|A3-A2 A|A2A F2A|d3 B2B|A2F GFE|D3-D2||

